!!!OTL: ES WOLLT EIN MAEDEL WOHL FRUEH AUFSTEHN
!!!ARE: Europa, Mitteleuropa, Deutschland, Thueringen
!!!SCT: Z0035
!!!YEM: Copyright 1995, estate of Helmut Schaffrath.
**kern
*ICvox
*Ivox
*M2/4
*k[f#]
*G:
{4d
=1
8g
8g
16g
16a
16dd
16g
=2
8a
8f#
8d}
{8d
=3
8g
8g
16g
16a
16b
16a
=4
4a
8r}
{16g
16a
=5
8b
8g
8g
8b
=6
8cc
8b
4a}
=7
{8f#
8a
16d
8cc
16cc
=8
8b
8a
8g}
{8d
=9
8b
8b
8a
8a
=10
4g}
==
!!!AGN: Sagen - Lied, Romanze
!!!ONB: ESAC (Essen Associative Code) Database: ZUCCAL
!!!AMT: simple duple
!!!AIN: vox
!!!EED: Helmut Schaffrath
!!!EEV: 1.0
*-
